context/brand-context/default/img/icons/book.svg

<svg id="i-book" viewBox="0 0 18 18" xmlns="http://www.w3.org/2000/svg"><path d="m4 13v-11h1v11h11v-11h-13c-.55228475 0-1 .44771525-1 1v10.2675644c.29417337-.1701701.63571286-.2675644 1-.2675644zm12 1h-13c-.55228475 0-1 .4477153-1 1s.44771525 1 1 1h13zm0 3h-13c-1.1045695 0-2-.8954305-2-2v-12c0-1.1045695.8954305-2 2-2h13c.5522847 0 1 .44771525 1 1v14c0 .5522847-.4477153 1-1 1zm-8.5-13h6c.2761424 0 .5.22385763.5.5s-.2238576.5-.5.5h-6c-.27614237 0-.5-.22385763-.5-.5s.22385763-.5.5-.5zm1 2h4c.2761424 0 .5.22385763.5.5s-.2238576.5-.5.5h-4c-.27614237 0-.5-.22385763-.5-.5s.22385763-.5.5-.5z" fill="currentColor" fill-rule="evenodd"/></svg>

<svg id="i-book" viewBox="0 0 18 18" xmlns="http://www.w3.org/2000/svg"><path d="M4 13V2h1v11h11V2H3a1 1 0 0 0-1 1v10.268A1.99 1.99 0 0 1 3 13zm12 1H3a1 1 0 0 0 0 2h13zm0 3H3a2 2 0 0 1-2-2V3a2 2 0 0 1 2-2h13a1 1 0 0 1 1 1v14a1 1 0 0 1-1 1zM7.5 4h6a.5.5 0 1 1 0 1h-6a.5.5 0 0 1 0-1zm1 2h4a.5.5 0 1 1 0 1h-4a.5.5 0 0 1 0-1z" fill="currentColor" fill-rule="evenodd"/></svg>
